auth/assets/custom-icons/icons/bitwarden.svg

<svg width="500" height="500" viewBox="0 0 500 500" fill="none" xmlns="http://www.w3.org/2000/svg">
<g clip-path="url(#clip0_8_67)">
<path d="M500 421.875C500 465.039 465.039 500 421.875 500H78.125C34.9609 500 0 465.039 0 421.875V78.125C0 34.9609 34.9609 0 78.125 0H421.875C465.039 0 500 34.9609 500 78.125V421.875Z" fill="#175DDC"/>
<path d="M405.176 62.793C402.002 59.6191 398.242 58.0566 393.945 58.0566H106.055C101.709 58.0566 97.998 59.6191 94.8242 62.793C91.6504 65.9668 90.0879 69.7266 90.0879 74.0234V265.967C90.0879 280.273 92.8711 294.482 98.4375 308.594C104.004 322.656 110.938 335.156 119.189 346.094C127.441 356.982 137.256 367.627 148.682 377.978C160.107 388.33 170.654 396.875 180.273 403.711C189.941 410.547 200 416.992 210.498 423.096C220.996 429.199 228.467 433.301 232.861 435.449C237.256 437.598 240.82 439.307 243.457 440.43C245.459 441.406 247.607 441.943 249.951 441.943C252.295 441.943 254.443 441.455 256.445 440.43C259.131 439.258 262.646 437.598 267.09 435.449C271.484 433.301 278.955 429.15 289.453 423.096C299.951 416.992 310.01 410.547 319.678 403.711C329.346 396.875 339.893 388.281 351.318 377.978C362.744 367.627 372.559 357.031 380.811 346.094C389.063 335.156 395.947 322.705 401.563 308.594C407.129 294.531 409.912 280.322 409.912 265.967V74.0723C409.961 69.7266 408.35 65.9668 405.176 62.793ZM368.066 267.773C368.066 337.256 250 397.119 250 397.119V99.1699H368.066C368.066 99.1699 368.066 198.291 368.066 267.773Z" fill="white"/>
</g>
<defs>
<clipPath id="clip0_8_67">
<rect width="500" height="500" fill="white"/>
</clipPath>
</defs>
</svg>

<svg xmlns="http://www.w3.org/2000/svg" viewBox="0 0 500 500">
  <path fill="#175ddc" d="M500 421.875C500 465.039 465.039 500 421.875 500H78.125C34.961 500 0 465.039 0 421.875V78.125C0 34.961 34.961 0 78.125 0h343.75C465.039 0 500 34.961 500 78.125v343.75Z"/>
  <path fill="#fff" d="M405.176 62.793c-3.174-3.174-6.934-4.736-11.231-4.736h-287.89c-4.346 0-8.057 1.562-11.231 4.736-3.174 3.174-4.736 6.934-4.736 11.23v191.944c0 14.306 2.783 28.515 8.35 42.627 5.566 14.062 12.5 26.562 20.751 37.5 8.252 10.888 18.067 21.533 29.493 31.884 11.425 10.352 21.972 18.897 31.591 25.733 9.668 6.836 19.727 13.281 30.225 19.385 10.498 6.103 17.969 10.205 22.363 12.353 4.395 2.149 7.959 3.858 10.596 4.981a14.605 14.605 0 0 0 6.494 1.513c2.344 0 4.492-.488 6.494-1.513 2.686-1.172 6.201-2.832 10.645-4.981 4.394-2.148 11.865-6.299 22.363-12.353 10.498-6.104 20.557-12.549 30.225-19.385 9.668-6.836 20.215-15.43 31.64-25.733 11.426-10.351 21.241-20.947 29.493-31.884 8.252-10.938 15.136-23.389 20.752-37.5 5.566-14.063 8.349-28.272 8.349-42.627V74.072c.049-4.345-1.562-8.105-4.736-11.279Zm-37.11 204.98C368.066 337.256 250 397.119 250 397.119V99.17h118.066v168.603Z"/>
</svg>
